X:1
T:Jézus, Te közénk eljöttél
T: 
C:Unknown
Z:Public Domain
L:1/8
Q:1/4=60
M:4/4
K:Dmin
V:1 treble nm="MusicXML Part"
%%MIDI program 0
V:1
"Dm" A A2 F"Gm" G G2 G/-A/ |"Dm" FD- D2 z4 |1"F" A A2 F c"C" c2 c/d/ |"F" A6"A" z2 :|2 %4
w: Jé- zus, Te kö- zénk el- *|jöt- tél, _|Bol- dog, ki min- dig Ve- led|él,|
w: U- ram, hogy min- dig Ve- led|él- jek, _|_ _ _ _ _ _ _||
"Bb" FDDF"A" ED^CE ||"Dm" D6 z2 |] %6
w: ||
w: Adj ir- gal- mat sok nagy vét- ke-|mért!|

